X:1

T:Whipman’s Rant, The

M:C

L:1/8

R:Strathspey

B:Stewart-Robertson – The Athole Collection  (1884)

Z:AK/Fiddler’s Companion

K:D

F|D/D/D A>B A>FE>F|D/D/D A>B A>FA>B|A>FA>G A>FE>F|

D/D/D A>B A>Bd>e|f>dg>f e>FE>F|D/D/D A>B AFD||

g|f>dd>f g>fe>g|f>dd>f a/g/f/e/ d>g|f>dd>f g>f ef/g/|a>gf>e d>ef>d|

(3efg (3fga e>FE>F|D/D/D D>d A>FD||

 

WHIPPLE'S HORNPIPE. American, Scottish; Hornpipe. B Flat Major (most versions): G Major (Miller). Standard tuning. AABB. Howe prints instructions for a contra-dance to the tune. An identical title appears in a list of traditional Ozark Mountain fiddle tunes compiled by musicologist/folklorist Vance Randolph, published in 1954. Cole (1000 Fiddle Tunes), 1940; pg. 94. Howe (1000 Jigs and Reels), c. 1867; pg. 81. Kerr (Merry Melodies), vol. 2; No. 338, pg. 37. Miller (Fiddler’s Throne), 2004; No. 323, pg. 189.  Ryan’s Mammoth Collection, 1883; pg. 129. White’s Unique Collection, 1896; No. 132, pg. 23.

